X: 27
T:Paddy's Trip to Scotland
M:4/4
L:1/8
S:Dermy Diamond, Belfast (fiddle)
R:Reel
H:Finishes on the first part
D:Private tape - Milltown Malbay 1985
N:As played
K:D
~B2ef efge | fefg afdf | ~g2bg fa{b}af | egfd edAB | ~B2ef efge | fefg afdf |\
~g2bg fa{b}af | edfe dBAF || E2{d}BA BAGF | ~E3G FDDF | EB~B2 {d}BABd |\
egfe dBAF | ~E3B {d}BAGF | EB,EG FDDF | EB~B2 {d}BABd | egfd Beef ||\
eB~B2 efge | +d2D2+ fg afdf | gfge fdad | eafd edAB | ~B2ef efge | fefg afdf |\
~g2bg fa{b}af | edfe dBAF || ~E3A B2GF | EDEG FDDF | EB~B2 {d}BABd |\
egfe dBAF | ~E3B {d}BAGF | EB,EG FDDF | EB~B2 {d}BABd | egfd Beef ||
<end>
<start>
